packages/gestalt-icons-android/vr-theme/ic_vr_text-sentence-case_gestalt.svg

<svg width="24" height="24" viewBox="0 0 24 24" fill="none" xmlns="http://www.w3.org/2000/svg">
<path d="M4.98366 15.2626L4.01466 17.9996H1.43066L6.07166 6.01465H8.80866L13.4497 17.9996H10.8657L9.89666 15.2626H4.98366ZM7.43166 8.41165L5.74866 13.1376H9.13166L7.43166 8.41165Z" fill="black"/>
<path d="M22.2608 16.0446L22.8898 17.4046C22.4988 17.9146 21.9378 18.2376 21.1048 18.2376C20.2718 18.2376 19.5918 17.7446 19.3028 16.9966C18.8948 17.7956 18.0618 18.2376 17.0078 18.2376C15.3418 18.2376 14.1688 17.2176 14.1688 15.8406C14.1688 14.4976 14.9338 13.7326 16.4978 13.3076C17.2458 13.1036 18.2318 12.9506 19.1668 12.8486V12.7636C19.1668 12.0326 18.6738 11.5566 17.8238 11.5566C16.9738 11.5566 16.4638 11.9136 16.2598 12.6446L14.2878 11.8286C14.7298 10.5026 16.0728 9.68665 17.9258 9.68665C20.1698 9.68665 21.4618 10.6896 21.4618 12.6446V15.7386C21.4618 16.0446 21.5978 16.2146 21.8528 16.2146C22.0058 16.2146 22.1248 16.1806 22.2608 16.0446ZM17.6538 16.4526C18.5548 16.4526 19.1668 15.8066 19.1668 14.9736V14.3616C18.4018 14.4466 17.8408 14.5486 17.4498 14.6676C16.8548 14.8376 16.5658 15.1096 16.5658 15.5686C16.5658 16.0786 16.9398 16.4526 17.6538 16.4526Z" fill="black"/>
</svg>

<svg xmlns="http://www.w3.org/2000/svg" width="24" height="24"><path d="M4.98 15.26 4.01 18H1.43L6.07 6.01h2.74L13.45 18h-2.58l-.97-2.74zm2.45-6.85-1.68 4.73h3.38zm14.83 7.63.63 1.36c-.4.51-.95.84-1.79.84A1.9 1.9 0 0 1 19.3 17c-.4.8-1.24 1.24-2.3 1.24-1.66 0-2.83-1.02-2.83-2.4 0-1.34.76-2.1 2.33-2.53.75-.2 1.73-.36 2.67-.46v-.09c0-.73-.5-1.2-1.35-1.2q-1.27 0-1.56 1.08l-1.97-.81c.44-1.33 1.78-2.14 3.64-2.14 2.24 0 3.53 1 3.53 2.95v3.1q0 .46.4.47.2.02.4-.17m-4.6.41c.9 0 1.5-.64 1.5-1.48v-.6a10 10 0 0 0-1.71.3c-.6.17-.88.44-.88.9 0 .5.37.88 1.08.88"/></svg>
